images/social/tw.svg

<svg width="30" height="30" viewBox="0 0 30 30" fill="none" xmlns="http://www.w3.org/2000/svg">
<g clip-path="url(#clip0_1_193)">
<path d="M15.0001 29.9997C23.2843 29.9997 30 23.2841 30 14.9999C30 6.71567 23.2843 0 15.0001 0C6.71591 0 0.000244141 6.71567 0.000244141 14.9999C0.000244141 23.2841 6.71591 29.9997 15.0001 29.9997Z" fill="#3E5ABE"/>
<path d="M24.188 10.78C23.5452 11.065 22.8538 11.2578 22.1286 11.3439C22.869 10.9003 23.4372 10.1984 23.7054 9.36068C23.0126 9.77165 22.2449 10.0698 21.4286 10.2305C20.7746 9.53395 19.8427 9.09864 18.8109 9.09864C16.8311 9.09864 15.2255 10.7043 15.2255 12.684C15.2255 12.9651 15.2573 13.2386 15.3188 13.5012C12.339 13.3517 9.697 11.9244 7.9285 9.75454C7.61994 10.284 7.44293 10.9003 7.44293 11.5573C7.44293 12.8009 8.07637 13.8988 9.03789 14.5416C8.45044 14.5231 7.89722 14.3619 7.41405 14.0926C7.41378 14.1079 7.41378 14.1231 7.41378 14.1381C7.41378 15.8753 8.65018 17.3243 10.2901 17.6534C9.98952 17.7358 9.67213 17.7794 9.34565 17.7794C9.11409 17.7794 8.88976 17.7572 8.67103 17.7154C9.1272 19.1396 10.451 20.1762 12.0203 20.2054C10.793 21.1671 9.24725 21.7402 7.56699 21.7402C7.27822 21.7402 6.99211 21.7233 6.71216 21.6899C8.29803 22.7076 10.1831 23.3009 12.2078 23.3009C18.8026 23.3009 22.4091 17.8376 22.4091 13.0993C22.4091 12.9439 22.4056 12.7891 22.3987 12.6356C23.0998 12.1303 23.7075 11.499 24.188 10.78Z" fill="white"/>
</g>
<defs>
<clipPath id="clip0_1_193">
<rect width="30" height="30" fill="white"/>
</clipPath>
</defs>
</svg>

<svg width="30" height="30" fill="none" xmlns="http://www.w3.org/2000/svg"><g clip-path="url(#a)"><path d="M15 30c8.284 0 15-6.716 15-15 0-8.284-6.716-15-15-15C6.716 0 0 6.716 0 15c0 8.284 6.716 15 15 15Z" fill="#3E5ABE"/><path d="M24.188 10.78a7.154 7.154 0 0 1-2.06.564 3.595 3.595 0 0 0 1.577-1.983c-.692.41-1.46.709-2.276.87a3.586 3.586 0 0 0-6.11 3.27 10.178 10.178 0 0 1-7.39-3.746 3.585 3.585 0 0 0 1.11 4.787 3.56 3.56 0 0 1-1.625-.45v.046a3.587 3.587 0 0 0 2.876 3.515 3.571 3.571 0 0 1-1.619.062 3.59 3.59 0 0 0 3.35 2.49 7.194 7.194 0 0 1-5.309 1.485 10.141 10.141 0 0 0 5.496 1.61c6.595 0 10.201-5.462 10.201-10.2 0-.156-.003-.31-.01-.464a7.27 7.27 0 0 0 1.789-1.856Z" fill="#fff"/></g><defs><clipPath id="a"><path fill="#fff" d="M0 0h30v30H0z"/></clipPath></defs></svg>
